src/assets/svg/arrow2.svg

<svg width="15.75" height="15.75" viewBox="0 0 15.751 15.751" fill="none" xmlns="http://www.w3.org/2000/svg">
  <path d="M15.75.87v11.38c0 .23-.1.45-.26.61a.87.87 0 0 1-1.49-.61V2.98L1.49 15.49c-.16.16-.39.26-.62.26-.23 0-.45-.1-.62-.26a.904.904 0 0 1-.25-.62c0-.23.09-.45.25-.62l12.51-12.5H3.5c-.24 0-.46-.1-.62-.26A.87.87 0 0 1 3.5 0h11.37c.23 0 .46.09.62.25.16.17.26.39.26.62Z" fill="#FCFCFC"/>
</svg>

<svg width="15.750488" height="15.750488" viewBox="0 0 15.7505 15.7505" fill="none" xmlns="http://www.w3.org/2000/svg" xmlns:xlink="http://www.w3.org/1999/xlink">
	<desc>
			Created with Pixso.
	</desc>
	<defs/>
	<path id="Vector" d="M15.75 0.87L15.75 12.25C15.75 12.48 15.65 12.7 15.49 12.86C15.33 13.03 15.1 13.12 14.87 13.12C14.64 13.12 14.42 13.03 14.25 12.86C14.09 12.7 14 12.48 14 12.25L14 2.98L1.49 15.49C1.33 15.65 1.1 15.75 0.87 15.75C0.64 15.75 0.42 15.65 0.25 15.49C0.09 15.32 0 15.1 0 14.87C0 14.64 0.09 14.42 0.25 14.25L12.76 1.75L3.5 1.75C3.26 1.75 3.04 1.65 2.88 1.49C2.71 1.32 2.62 1.1 2.62 0.87C2.62 0.64 2.71 0.42 2.88 0.25C3.04 0.09 3.26 0 3.5 0L14.87 0C15.1 0 15.33 0.09 15.49 0.25C15.65 0.42 15.75 0.64 15.75 0.87Z" fill="#FCFCFC" fill-opacity="1.000000" fill-rule="nonzero"/>
</svg>
